src/assets/filled/MessageTime.svg

<svg width="24" height="24" viewBox="0 0 24 24"  xmlns="http://www.w3.org/2000/svg">
<path d="M5 13.5C4.06 13.5 3.19 13.83 2.5 14.38C1.58 15.11 1 16.24 1 17.5C1 19.71 2.79 21.5 5 21.5C6.01 21.5 6.93 21.12 7.64 20.5C8.47 19.77 9 18.7 9 17.5C9 15.29 7.21 13.5 5 13.5ZM6 17.75C6 18.01 5.86 18.26 5.64 18.39L4.39 19.14C4.27 19.22 4.13 19.25 4 19.25C3.75 19.25 3.5 19.12 3.36 18.89C3.15 18.53 3.26 18.07 3.62 17.86L4.51 17.33V16.25C4.51 15.84 4.85 15.5 5.26 15.5C5.67 15.5 6 15.84 6 16.25V17.75Z" />
<path d="M17.25 2.43018H7.75C4.9 2.43018 3 4.33018 3 7.18018V11.6402C3 11.9902 3.36 12.2402 3.7 12.1502C4.12 12.0502 4.55 12.0002 5 12.0002C7.86 12.0002 10.22 14.3202 10.48 17.1302C10.5 17.4102 10.73 17.6302 11 17.6302H11.55L15.78 20.4502C16.4 20.8702 17.25 20.4102 17.25 19.6502V17.6302C18.67 17.6302 19.86 17.1502 20.69 16.3302C21.52 15.4902 22 14.3002 22 12.8802V7.18018C22 4.33018 20.1 2.43018 17.25 2.43018ZM15.83 10.8102H9.17C8.78 10.8102 8.46 10.4902 8.46 10.1002C8.46 9.70018 8.78 9.38018 9.17 9.38018H15.83C16.22 9.38018 16.54 9.70018 16.54 10.1002C16.54 10.4902 16.22 10.8102 15.83 10.8102Z" />
</svg>

<?xml version="1.0" encoding="UTF-8"?>
<svg width="24" height="24" viewBox="0 0 24 24" xmlns="http://www.w3.org/2000/svg">
 <path d="m5 13.5c-0.94 0-1.81 0.33-2.5 0.88-0.92 0.73-1.5 1.86-1.5 3.12 0 2.21 1.79 4 4 4 1.01 0 1.93-0.38 2.64-1 0.83-0.73 1.36-1.8 1.36-3 0-2.21-1.79-4-4-4zm1 4.25c0 0.26-0.14 0.51-0.36 0.64l-1.25 0.75c-0.12 0.08-0.26 0.11-0.39 0.11-0.25 0-0.5-0.13-0.64-0.36-0.21-0.36-0.1-0.82 0.26-1.03l0.89-0.53v-1.08c0-0.41 0.34-0.75 0.75-0.75s0.74 0.34 0.74 0.75v1.5z"/>
 <path d="m17.25 2.4302h-9.5c-2.85 0-4.75 1.9-4.75 4.75v4.46c0 0.35 0.36 0.6 0.7 0.51 0.42-0.1 0.85-0.15 1.3-0.15 2.86 0 5.22 2.32 5.48 5.13 0.02 0.28 0.25 0.5 0.52 0.5h0.55l4.23 2.82c0.62 0.42 1.47-0.04 1.47-0.8v-2.02c1.42 0 2.61-0.48 3.44-1.3 0.83-0.84 1.31-2.03 1.31-3.45v-5.7c0-2.85-1.9-4.75-4.75-4.75zm-1.42 8.38h-6.66c-0.39 0-0.71-0.32-0.71-0.71 0-0.40002 0.32-0.72002 0.71-0.72002h6.66c0.39 0 0.71 0.32 0.71 0.72002 0 0.39-0.32 0.71-0.71 0.71z"/>
</svg>
